material/.icons/material/camera-account.svg

<svg xmlns="http://www.w3.org/2000/svg" viewBox="0 0 24 24"><path d="M4 5h3l2-2h6l2 2h3a2 2 0 012 2v12a2 2 0 01-2 2H4a2 2 0 01-2-2V7a2 2 0 012-2m12 12v-1c0-1.33-2.67-2-4-2s-4 .67-4 2v1h8m-4-8a2 2 0 00-2 2 2 2 0 002 2 2 2 0 002-2 2 2 0 00-2-2z"/></svg>

<?xml version="1.0" encoding="UTF-8"?><!DOCTYPE svg PUBLIC "-//W3C//DTD SVG 1.1//EN" "http://www.w3.org/Graphics/SVG/1.1/DTD/svg11.dtd"><svg xmlns="http://www.w3.org/2000/svg" xmlns:xlink="http://www.w3.org/1999/xlink" version="1.1" id="mdi-camera-account" width="24" height="24" viewBox="0 0 24 24"><path d="M4,5H7L9,3H15L17,5H20A2,2 0 0,1 22,7V19A2,2 0 0,1 20,21H4A2,2 0 0,1 2,19V7A2,2 0 0,1 4,5M16,17V16C16,14.67 13.33,14 12,14C10.67,14 8,14.67 8,16V17H16M12,9A2,2 0 0,0 10,11A2,2 0 0,0 12,13A2,2 0 0,0 14,11A2,2 0 0,0 12,9Z" /></svg>
